X: 1
T: Breton Wedding March, The
M: 4/4
L: 1/8
R: reel
K: Gmaj
|:D4 G3G|G8|G>F G>A B2A2|G6 (3GAB|
c4 c>B c>d|B6G2|A4 A>G A>B|A8:|
|:d3e d2 B2|G3A G4|c>B c>d c2 B2|A6 D2|
G3B A2G2|D4 G2 A2|B4 A3G|G8:|
